X:7
T:Barlow Knife
C:Old-Time
M:2/4
K:G
L:1/8
"G" [B2g2] [Bg](g | "D" fg) af | "G" [g2B2] [g2B2] | [g4d4] | [g2B2] [gB](g | "D" fg) a(f |
"C" eg) fe | "G" [g4d4] :: "C" e2 d2 | "G" (BA) GB | "C" e2 d2 | "G" [B4D4] | "C" e2 d2 |
"G" (BA) GB | "D" A2 G2 |1 "G" [B4G4] :|2 "G" [B2G2] (B2 |: "D" [A2D2]) d(A | "G" BA) G(B |
"D" [A2D2]) d2 | "G" [B2D2] [BD]([BD] | "D" [A2D2]) d(A | "G" BA) GB | "D" A2 G2 | "G" [B4G4] |]

